;FLAVOR:Marlin
;TIME:10129
;Filament used: 7.58851m
;Layer height: 0.28
;MINX:14.335
;MINY:14.335
;MINZ:0.28
;MAXX:205.66
;MAXY:205.665
;MAXZ:8.12
;TARGET_MACHINE.NAME:Creality Ender-3 S1
;Generated with Cura_SteamEngine 5.5.0
M82 ;absolute extrusion mode
; Ender 3 S1 Start G-code
G92 E0 ; Reset Extruder
G28 ; Home all axes
G1 Z10.0 F3000 ; Move Z Axis up little to prevent scratching of Heat Bed
G1 X0 Y0

M104 S200
M190 S60
M109 S200

G1 X0.1 Y20 Z0.3 F5000.0 ; Move to start position
G1 X0.1 Y200.0 Z0.3 F1500.0 E15 ; Draw the first line
G1 X0.4 Y200.0 Z0.3 F5000.0 ; Move to side a little
G1 X0.4 Y20 Z0.3 F1500.0 E30 ; Draw the second line
G92 E0 ; Reset Extruder
G1 Z2.0 F3000 ; Move Z Axis up little to prevent scratching of Heat Bed
G1 X5 Y20 Z0.3 F5000.0 ; Move over to prevent blob squish
G92 E0
G92 E0
G1 F2400 E-0.8
;LAYER_COUNT:29
;LAYER:0
M107
M204 S2000
;MESH:arche.stl(1)
G0 F7500 X18.702 Y54.513 Z0.28
M204 S500
;TYPE:WALL-INNER
G1 F2400 E0
G1 F1500 X18.701 Y52.263 E0.07858
G1 X16.327 Y52.263 E0.16148
G1 X16.327 Y54.513 E0.24006
G1 X18.702 Y54.513 E0.323
M204 S2000
G0 F7500 X19.002 Y54.813
M204 S500
;TYPE:WALL-OUTER
G1 F1500 X19.001 Y51.963 E0.42254
G1 X16.027 Y51.963 E0.5264
G1 X16.027 Y54.813 E0.62593
G1 X19.002 Y54.813 E0.72982
M204 S2000
G0 F7500 X18.442 Y54.253
M204 S500
;TYPE:SKIN
G1 F1500 X16.587 Y54.253 E0.79461
G1 X16.587 Y52.523 E0.85502
G1 X18.441 Y52.523 E0.91977
G1 X18.442 Y54.253 E0.98019
M204 S2000
G0 F7500 X18.652 Y54.253
G0 X18.652 Y53.081
G0 X18.291 Y53.081
M204 S500
G1 F1500 X17.882 Y52.672 E1.00039
M204 S2000
G0 F7500 X17.458 Y52.672
M204 S500
G1 F1500 X18.291 Y53.505 E1.04153
M204 S2000
G0 F7500 X18.291 Y53.929
M204 S500
G1 F1500 X17.034 Y52.672 E1.10361
M204 S2000
G0 F7500 X16.737 Y52.799
M204 S500
G1 F1500 X18.039 Y54.102 E1.16794
M204 S2000
G0 F7500 X17.615 Y54.102
M204 S500
G1 F1500 X16.737 Y53.223 E1.21133
M204 S2000
G0 F7500 X16.737 Y53.648
M204 S500
G1 F1500 X17.191 Y54.102 E1.23375
M204 S2000
G1 F2400 E0.43375
G0 F7500 X17.191 Y54.463
G0 X18.738 Y54.549
G0 X14.335 Y54.549
G0 X14.352 Y155.019
G0 X15.519 Y158.056
G0 X18.339 Y162.979
G0 X19.423 Y164.195
G0 X21.09 Y164.19
G0 X41.597 Y149.752
G0 X45.153 Y147.089
G0 X45.499 Y146.409
G0 X48.689 Y125.259
G0 X48.198 Y91.451
G0 X49.103 Y91.689
G0 X50.798 Y91.686
G0 X54.316 Y90.653
G0 X55.836 Y89.897
G0 X56.416 Y89.317
G0 X56.684 Y88.914
G0 X56.995 Y87.985
G0 X56.994 Y87.294
G0 X56.719 Y86.569
G0 X55.129 Y84.894
G0 X53.974 Y83.852
G0 X35.368 Y71.644
G0 X34.832 Y55.958
G0 X40.555 Y54.513
M204 S500
;TYPE:WALL-INNER
G1 F2400 E1.23375
G1 F1500 X40.555 Y52.263 E1.31233
G1 X38.18 Y52.263 E1.39527
G1 X38.18 Y54.513 E1.47385
G1 X40.555 Y54.513 E1.55679
M204 S2000
G0 F7500 X40.855 Y54.813
M204 S500
;TYPE:WALL-OUTER
G1 F1500 X40.855 Y51.963 E1.65632
G1 X37.88 Y51.963 E1.76022
G1 X37.88 Y54.813 E1.85975
G1 X40.855 Y54.813 E1.96364
M204 S2000
G0 F7500 X40.295 Y54.253
M204 S500
;TYPE:SKIN
G1 F1500 X38.44 Y54.253 E2.02843
G1 X38.44 Y52.523 E2.08884
G1 X40.295 Y52.523 E2.15363
G1 X40.295 Y54.253 E2.21404
M204 S2000
G0 F7500 X40.505 Y54.253
G0 X40.505 Y52.873
G0 X40.145 Y52.873
M204 S500
G1 F1500 X39.944 Y52.672 E2.22397
M204 S2000
G0 F7500 X39.52 Y52.672
M204 S500
G1 F1500 X40.145 Y53.297 E2.25484
M204 S2000
G0 F7500 X40.145 Y53.721
M204 S500
G1 F1500 X39.095 Y52.672 E2.30667
M204 S2000
G0 F7500 X38.671 Y52.672
M204 S500
G1 F1500 X40.101 Y54.102 E2.3773
M204 S2000
G0 F7500 X39.677 Y54.102
M204 S500
G1 F1500 X38.589 Y53.014 E2.43103
M204 S2000
G0 F7500 X38.589 Y53.438
M204 S500
G1 F1500 X39.252 Y54.102 E2.4638
M204 S2000
G0 F7500 X38.828 Y54.102
M204 S500
G1 F1500 X38.589 Y53.863 E2.47561
M204 S2000
G1 F2400 E1.67561
;MESH:arche.stl(7)
G0 F7500 X38.23 Y53.863
G0 X38.302 Y54.391
G0 X40.591 Y54.549
G0 X43.513 Y86.792
G0 X45.909 Y86.77
M204 S500
;TYPE:WALL-INNER
G1 F2400 E2.47561
G1 F1500 X45.909 Y84.52 E2.55418
G1 X43.535 Y84.52 E2.63709
G1 X43.535 Y86.77 E2.71567
G1 X45.909 Y86.77 E2.79857
M204 S2000
G0 F7500 X46.209 Y87.07
M204 S500
;TYPE:WALL-OUTER
G1 F1500 X46.209 Y84.22 E2.89811
G1 X43.235 Y84.22 E3.00197
G1 X43.235 Y87.07 E3.1015
G1 X46.209 Y87.07 E3.20536
M204 S2000
G0 F7500 X45.649 Y86.51
M204 S500
;TYPE:SKIN
G1 F1500 X43.795 Y86.51 E3.27011
G1 X43.795 Y84.78 E3.33052
G1 X45.649 Y84.78 E3.39527
G1 X45.649 Y86.51 E3.45569
M204 S2000
G0 F7500 X45.859 Y86.51
G0 X45.859 Y85.38
G0 X45.499 Y85.38
M204 S500
G1 F1500 X45.048 Y84.929 E3.47796
M204 S2000
G0 F7500 X44.624 Y84.929
M204 S500
G1 F1500 X45.499 Y85.804 E3.52118
M204 S2000
G0 F7500 X45.499 Y86.228
M204 S500
G1 F1500 X44.199 Y84.929 E3.58536
M204 S2000
G0 F7500 X43.945 Y85.098
M204 S500
G1 F1500 X45.205 Y86.358 E3.64759
M204 S2000
G0 F7500 X44.781 Y86.358
M204 S500
G1 F1500 X43.945 Y85.523 E3.68885
M204 S2000
G0 F7500 X43.945 Y85.947
M204 S500
G1 F1500 X44.356 Y86.358 E3.70915
M204 S2000
G1 F2400 E2.90915
G0 F7500 X44.356 Y86.72
G0 X43.485 Y86.761
G0 X42.655 Y87.96
G0 X42.177 Y87.978
G0 X31.467 Y85.657
G0 X30.982 Y85.267
G0 X29.48 Y85.285
G0 X27.075 Y85.519
G0 X24.057 Y86.77
M204 S500
;TYPE:WALL-INNER
G1 F2400 E3.70915
G1 F1500 X24.056 Y84.52 E3.78773
G1 X21.681 Y84.52 E3.87067
G1 X21.681 Y86.77 E3.94925
G1 X24.057 Y86.77 E4.03223
M204 S2000
G0 F7500 X24.357 Y87.07
M204 S500
;TYPE:WALL-OUTER
G1 F1500 X24.356 Y84.22 E4.13176
G1 X21.381 Y84.22 E4.23565
G1 X21.381 Y87.07 E4.33518
G1 X24.357 Y87.07 E4.43912
M204 S2000
G0 F7500 X23.797 Y86.51
M204 S500
;TYPE:SKIN
G1 F1500 X21.941 Y86.51 E4.50393
G1 X21.941 Y84.78 E4.56435
G1 X23.796 Y84.78 E4.62913
G1 X23.797 Y86.51 E4.68955
M204 S2000
G0 F7500 X24.007 Y86.51
G0 X24.007 Y85.164
G0 X23.646 Y85.164
M204 S500
G1 F1500 X23.41 Y84.929 E4.70118
M204 S2000
G0 F7500 X22.986 Y84.929
M204 S500
G1 F1500 X23.646 Y85.588 E4.73375
M204 S2000
G0 F7500 X23.647 Y86.013
M204 S500
G1 F1500 X22.562 Y84.929 E4.78731
M204 S2000
G0 F7500 X22.138 Y84.929
M204 S500
G1 F1500 X23.567 Y86.358 E4.85789
M204 S2000
G0 F7500 X23.143 Y86.358
M204 S500
G1 F1500 X22.09 Y85.306 E4.90987
M204 S2000
G0 F7500 X22.09 Y85.73
M204 S500
G1 F1500 X22.719 Y86.358 E4.94091
M204 S2000
G0 F7500 X22.295 Y86.358
M204 S500
G1 F1500 X22.09 Y86.154 E4.95101
M204 S2000
G1 F2400 E4.15101
;MESH:arche.stl(8)
G0 F7500 X21.731 Y86.154
G0 X21.803 Y86.648
G0 X24.093 Y86.806
G0 X27.075 Y85.519
G0 X29.128 Y85.289
G0 X30.982 Y85.267
G0 X31.623 Y85.644
G0 X43.176 Y88.665
G0 X47.303 Y87.871
M204 S500
;TYPE:WALL-INNER
G1 F2400 E4.95101
G1 F1500 X49.358 Y86.685 E5.03387
G1 X48.233 Y84.738 E5.1124
G1 X46.179 Y85.924 E5.19524
G1 X47.303 Y87.871 E5.27375
M204 S2000
G0 F7500 X47.193 Y88.281
M204 S500
;TYPE:WALL-OUTER
G1 F1500 X49.768 Y86.795 E5.37758
G1 X48.343 Y84.328 E5.47707
G1 X45.769 Y85.814 E5.58087
G1 X47.193 Y88.281 E5.68035
M204 S2000
G0 F7500 X47.397 Y87.517
M204 S500
;TYPE:SKIN
G1 F1500 X46.533 Y86.018 E5.74077
G1 X48.138 Y85.092 E5.80548
G1 X49.003 Y86.591 E5.86592
G1 X47.397 Y87.517 E5.93066
M204 S2000
G0 F7500 X47.707 Y87.163
M204 S500
G1 F1500 X46.903 Y86.359 E5.97037
M204 S2000
G0 F7500 X46.929 Y85.962
M204 S500
G1 F1500 X47.976 Y87.008 E6.02206
M204 S2000
G0 F7500 X48.245 Y86.853
M204 S500
G1 F1500 X47.198 Y85.806 E6.07377
M204 S2000
G0 F7500 X47.468 Y85.651
M204 S500
G1 F1500 X48.514 Y86.698 E6.12545
M204 S2000
G0 F7500 X48.783 Y86.542
M204 S500
G1 F1500 X47.736 Y85.496 E6.17714
M204 S2000
G0 F7500 X48.005 Y85.34
M204 S500
G1 F1500 X48.249 Y85.584 E6.18919
M204 S2000
G1 F2400 E5.38919
G0 F7500 X48.56 Y85.405
G0 X49.384 Y86.627
G0 X52.036 Y82.957
G0 X60.631 Y74.291
G0 X66.23 Y76.945
M204 S500
;TYPE:WALL-INNER
G1 F2400 E6.18919
G1 F1500 X68.283 Y75.76 E6.27197
G1 X67.159 Y73.812 E6.35051
G1 X65.105 Y74.998 E6.43335
G1 X66.23 Y76.945 E6.51188
M204 S2000
G0 F7500 X66.12 Y77.355
M204 S500
;TYPE:WALL-OUTER
G1 F1500 X68.693 Y75.87 E6.61563
G1 X67.269 Y73.402 E6.71513
G1 X64.695 Y74.888 E6.81893
G1 X66.12 Y77.355 E6.91843
M204 S2000
G0 F7500 X66.325 Y76.591
M204 S500
;TYPE:SKIN
G1 F1500 X65.46 Y75.092 E6.97887
G1 X67.064 Y74.166 E7.04355
G1 X67.929 Y75.665 E7.10399
G1 X66.325 Y76.591 E7.16867
M204 S2000
G0 F7500 X66.535 Y76.293
M204 S500
G1 F1500 X66.042 Y75.8 E7.19302
M204 S2000
G0 F7500 X65.758 Y75.092
M204 S500
G1 F1500 X66.805 Y76.139 E7.24473
M204 S2000
G0 F7500 X67.074 Y75.983
M204 S500
G1 F1500 X66.028 Y74.937 E7.29639
M204 S2000
G0 F7500 X66.296 Y74.782
M204 S500
G1 F1500 X67.343 Y75.828 E7.34807
M204 S2000
G0 F7500 X67.612 Y75.673
M204 S500
G1 F1500 X66.565 Y74.626 E7.39978
M204 S2000
G0 F7500 X66.834 Y74.471
M204 S500
G1 F1500 X67.385 Y75.021 E7.42697
M204 S2000
G1 F2400 E6.62697
;MESH:arche.stl(20)
G0 F7500 X67.695 Y74.842
G0 X67.114 Y73.979
G0 X65.689 Y74.626
G0 X60.631 Y74.291
G0 X58.92 Y68.202
G0 X60.031 Y64.739
M204 S500
;TYPE:WALL-INNER
G1 F2400 E7.42697
G1 F1500 X60.03 Y62.489 E7.50555
G1 X58.281 Y62.489 E7.56663
G1 X58.281 Y64.739 E7.64521
G1 X60.031 Y64.739 E7.70632
M204 S2000
G0 F7500 X60.331 Y65.039
M204 S500
;TYPE:WALL-OUTER
G1 F1500 X60.33 Y62.189 E7.80585
G1 X57.981 Y62.189 E7.88789
G1 X57.981 Y65.039 E7.98742
G1 X60.331 Y65.039 E8.06949
M204 S2000
G0 F7500 X59.771 Y64.479
M204 S500
;TYPE:SKIN
G1 F1500 X58.541 Y64.479 E8.11244
G1 X58.541 Y62.749 E8.17286
G1 X59.77 Y62.749 E8.21578
G1 X59.771 Y64.479 E8.2762
M204 S2000
G0 F7500 X58.812 Y64.328
M204 S500
G1 F1500 X58.691 Y64.206 E8.2822
M204 S2000
G0 F7500 X58.691 Y63.782
M204 S500
G1 F1500 X59.237 Y64.328 E8.30917
M204 S2000
G0 F7500 X59.62 Y64.287
M204 S500
G1 F1500 X58.691 Y63.358 E8.35505
M204 S2000
G0 F7500 X58.691 Y62.933
M204 S500
G1 F1500 X59.62 Y63.863 E8.40096
M204 S2000
G0 F7500 X59.62 Y63.438
M204 S500
G1 F1500 X59.08 Y62.898 E8.42762
M204 S2000
G0 F7500 X59.504 Y62.898
M204 S500
G1 F1500 X59.62 Y63.014 E8.43335
M204 S2000
G1 F2400 E7.63335
G0 F7500 X59.981 Y63.014
G0 X60.08 Y64.746
G0 X77.535 Y64.761
G0 X77.513 Y64.739
M204 S500
;TYPE:WALL-INNER
G1 F2400 E8.43335
G1 F1500 X77.513 Y62.489 E8.51193
G1 X75.763 Y62.489 E8.57305
G1 X75.764 Y64.739 E8.65162
G1 X77.513 Y64.739 E8.7127
M204 S2000
G0 F7500 X77.813 Y65.039
M204 S500
;TYPE:WALL-OUTER
G1 F1500 X77.813 Y62.189 E8.81224
G1 X75.463 Y62.189 E8.8943
G1 X75.464 Y65.039 E8.99384
G1 X77.813 Y65.039 E9.07587
M204 S2000
G0 F7500 X77.253 Y64.479
M204 S500
;TYPE:SKIN
G1 F1500 X76.024 Y64.479 E9.11879
G1 X76.023 Y62.749 E9.17921
G1 X77.253 Y62.749 E9.22216
G1 X77.253 Y64.479 E9.28258
M204 S2000
G0 F7500 X76.632 Y64.329
M204 S500
G1 F1500 X76.172 Y63.868 E9.30532
M204 S2000
G0 F7500 X76.172 Y63.444
M204 S500
G1 F1500 X77.056 Y64.329 E9.34901
M204 S2000
G0 F7500 X77.102 Y63.95
M204 S500
G1 F1500 X76.172 Y63.02 E9.39494
M204 S2000
G0 F7500 X76.475 Y62.899
M204 S500
G1 F1500 X77.102 Y63.525 E9.42588
M204 S2000
G0 F7500 X77.102 Y63.101
M204 S500
G1 F1500 X76.899 Y62.899 E9.43588
M204 S2000
G1 F2400 E8.63588
;MESH:arche.stl(2)
G0 F7500 X76.899 Y62.539
G0 X77.323 Y62.625
G0 X77.323 Y64.215
G0 X77.488 Y64.345
M204 S500
;TYPE:WALL-INNER
G1 F2400 E9.43588
G1 F1500 X77.487 Y62.095 E9.51446
G1 X75.113 Y62.095 E9.59737
G1 X75.113 Y64.345 E9.67594
G1 X77.488 Y64.345 E9.75889
M204 S2000
G0 F7500 X77.788 Y64.645
M204 S500
;TYPE:WALL-OUTER
G1 F1500 X77.787 Y61.795 E9.85842
G1 X74.813 Y61.795 E9.96228
G1 X74.813 Y64.645 E10.06181
G1 X77.788 Y64.645 E10.16571
M204 S2000
G0 F7500 X77.228 Y64.085
M204 S500
;TYPE:SKIN
G1 F1500 X75.373 Y64.085 E10.23049
G1 X75.373 Y62.355 E10.29091
G1 X77.227 Y62.355 E10.35565
G1 X77.228 Y64.085 E10.41607
M204 S2000
G0 F7500 X77.313 Y64.245
G0 X77.323 Y62.619
G0 X77.076 Y62.651
M204 S500
G1 F1500 X76.93 Y62.505 E10.42328
M204 S2000
G0 F7500 X76.506 Y62.505
M204 S500
G1 F1500 X77.076 Y63.076 E10.45146
M204 S2000
G0 F7500 X77.077 Y63.501
M204 S500
G1 F1500 X76.081 Y62.505 E10.50065
M204 S2000
G0 F7500 X75.657 Y62.505
M204 S500
G1 F1500 X77.077 Y63.925 E10.57078
M204 S2000
G0 F7500 X76.663 Y63.935
M204 S500
G1 F1500 X75.521 Y62.793 E10.62718
M204 S2000
G0 F7500 X75.521 Y63.218
M204 S500
G1 F1500 X76.238 Y63.935 E10.66259
M204 S2000
G0 F7500 X75.814 Y63.935
M204 S500
G1 F1500 X75.521 Y63.642 E10.67707
M204 S2000
G1 F2400 E9.87707
G0 F7500 X75.814 Y63.642
G0 X75.9 Y64.181
G0 X96.917 Y64.173
G0 X99.341 Y64.345
M204 S500
;TYPE:WALL-INNER
G1 F2400 E10.67707
G1 F1500 X99.341 Y62.095 E10.75564
G1 X96.967 Y62.095 E10.83855
G1 X96.967 Y64.345 E10.91713
G1 X99.341 Y64.345 E11.00004
M204 S2000
G0 F7500 X99.641 Y64.645
M204 S500
;TYPE:WALL-OUTER
G1 F1500 X99.641 Y61.795 E11.09957
G1 X96.667 Y61.795 E11.20343
G1 X96.667 Y64.645 E11.30296
G1 X99.641 Y64.645 E11.40682
M204 S2000
G0 F7500 X99.081 Y64.085
M204 S500
;TYPE:SKIN
G1 F1500 X97.227 Y64.085 E11.47157
G1 X97.227 Y62.355 E11.53198
G1 X99.081 Y62.355 E11.59673
G1 X99.081 Y64.085 E11.65715
M204 S2000
G0 F7500 X99.291 Y64.085
G0 X99.291 Y62.868
G0 X98.93 Y62.868
M204 S500
G1 F1500 X98.567 Y62.504 E11.6751
M204 S2000
G0 F7500 X98.142 Y62.504
M204 S500
G1 F1500 X98.93 Y63.292 E11.71402
M204 S2000
G0 F7500 X98.93 Y63.716
M204 S500
G1 F1500 X97.718 Y62.504 E11.77388
M204 S2000
G0 F7500 X97.376 Y62.586
M204 S500
G1 F1500 X98.724 Y63.934 E11.84046
M204 S2000
G0 F7500 X98.299 Y63.934
M204 S500
G1 F1500 X97.376 Y63.01 E11.88607
M204 S2000
G0 F7500 X97.376 Y63.435
M204 S500
G1 F1500 X97.875 Y63.934 E11.91071
M204 S2000
G0 F7500 X97.451 Y63.934
M204 S500
G1 F1500 X97.376 Y63.859 E11.91442
M204 S2000
G1 F2400 E11.11442
;MESH:arche.stl
G0 F7500 X97.017 Y63.859
G0 X96.931 Y64.381
G0 X93.034 Y77.229
G0 X92.998 Y79.515
M204 S500
;TYPE:WALL-INNER
G1 F2400 E11.91442
G1 F1500 X92.998 Y77.265 E11.99299
G1 X90.624 Y77.265 E12.0759
G1 X90.624 Y79.515 E12.15448
G1 X92.998 Y79.515 E12.23738
M204 S2000
G0 F7500 X93.298 Y79.815
M204 S500
;TYPE:WALL-OUTER
G1 F1500 X93.298 Y76.965 E12.33692
G1 X90.324 Y76.965 E12.44078
G1 X90.324 Y79.815 E12.54031
G1 X93.298 Y79.815 E12.64417
M204 S2000
G0 F7500 X92.738 Y79.255
M204 S500
;TYPE:SKIN
G1 F1500 X90.884 Y79.255 E12.70892
G1 X90.884 Y77.525 E12.76933
G1 X92.738 Y77.525 E12.83408
G1 X92.738 Y79.255 E12.8945
M204 S2000
G0 F7500 X92.948 Y79.255
G0 X92.876 Y77.387
G0 X92.524 Y77.315
G0 X92.524 Y77.674
M204 S500
G1 F1500 X92.587 Y77.738 E12.89763
M204 S2000
G0 F7500 X92.587 Y78.162
M204 S500
G1 F1500 X92.099 Y77.674 E12.92174
M204 S2000
G0 F7500 X91.675 Y77.674
M204 S500
G1 F1500 X92.587 Y78.587 E12.9668
M204 S2000
G0 F7500 X92.587 Y79.011
M204 S500
G1 F1500 X91.251 Y77.674 E13.03281
M204 S2000
G0 F7500 X91.033 Y77.881
M204 S500
G1 F1500 X92.256 Y79.104 E13.09321
M204 S2000
G0 F7500 X91.832 Y79.104
M204 S500
G1 F1500 X91.033 Y78.305 E13.13268
M204 S2000
G0 F7500 X91.033 Y78.729
M204 S500
G1 F1500 X91.408 Y79.104 E13.1512
M204 S2000
G1 F2400 E12.3512
G0 F7500 X91.408 Y79.465
G0 X90.574 Y79.506
G0 X82.276 Y76.741
G0 X79.703 Y77.821
G0 X75.249 Y79.325
G0 X71.146 Y79.515
M204 S500
;TYPE:WALL-INNER
G1 F2400 E13.1512
G1 F1500 X71.145 Y77.265 E13.22977
G1 X68.77 Y77.265 E13.31272
G1 X68.77 Y79.515 E13.39129
G1 X71.146 Y79.515 E13.47427
M204 S2000
G0 F7500 X71.446 Y79.815
M204 S500
;TYPE:WALL-OUTER
G1 F1500 X71.445 Y76.965 E13.5738
G1 X68.47 Y76.965 E13.6777
G1 X68.47 Y79.815 E13.77723
G1 X71.446 Y79.815 E13.88116
M204 S2000
G0 F7500 X70.886 Y79.255
M204 S500
;TYPE:SKIN
G1 F1500 X69.03 Y79.255 E13.94598
G1 X69.03 Y77.525 E14.00639
G1 X70.885 Y77.525 E14.07118
G1 X70.886 Y79.255 E14.13159
M204 S2000
G0 F7500 X71.096 Y79.255
G0 X71.096 Y77.947
G0 X70.735 Y77.947
M204 S500
G1 F1500 X70.461 Y77.674 E14.1451
M204 S2000
G0 F7500 X70.037 Y77.674
M204 S500
G1 F1500 X70.735 Y78.372 E14.17958
M204 S2000
G0 F7500 X70.736 Y78.797
M204 S500
G1 F1500 X69.613 Y77.674 E14.23504
M204 S2000
G0 F7500 X69.188 Y77.674
M204 S500
G1 F1500 X70.618 Y79.104 E14.30566
M204 S2000
G0 F7500 X70.194 Y79.104
M204 S500
G1 F1500 X69.179 Y78.089 E14.35579
M204 S2000
G0 F7500 X69.179 Y78.513
M204 S500
G1 F1500 X69.77 Y79.104 E14.38498
M204 S2000
G0 F7500 X69.345 Y79.104
M204 S500
G1 F1500 X69.179 Y78.937 E14.39321
M204 S2000
G1 F2400 E13.59321
;MESH:arche.stl(3)
G0 F7500 X68.82 Y78.937
G0 X68.892 Y77.387
G0 X71.181 Y77.229
G0 X99.534 Y63.451
G0 X101.945 Y63.415
M204 S500
;TYPE:WALL-INNER
G1 F2400 E14.39321
G1 F1500 X101.944 Y61.165 E14.47178
G1 X99.57 Y61.165 E14.55469
G1 X99.57 Y63.415 E14.63327
G1 X101.945 Y63.415 E14.71621
M204 S2000
