;FLAVOR:Marlin
;TIME:9878
;Filament used: 8.094m
;Layer height: 0.28
;MINX:14.335
;MINY:14.335
;MINZ:0.28
;MAXX:205.665
;MAXY:205.665
;MAXZ:7
;TARGET_MACHINE.NAME:Creality Ender-3 S1
;Generated with Cura_SteamEngine 5.5.0
M82 ;absolute extrusion mode
; Ender 3 S1 Start G-code
G92 E0 ; Reset Extruder
G28 ; Home all axes
G1 Z10.0 F3000 ; Move Z Axis up little to prevent scratching of Heat Bed
G1 X0 Y0

M104 S200
M190 S60
M109 S200

G1 X0.1 Y20 Z0.3 F5000.0 ; Move to start position
G1 X0.1 Y200.0 Z0.3 F1500.0 E15 ; Draw the first line
G1 X0.4 Y200.0 Z0.3 F5000.0 ; Move to side a little
G1 X0.4 Y20 Z0.3 F1500.0 E30 ; Draw the second line
G92 E0 ; Reset Extruder
G1 Z2.0 F3000 ; Move Z Axis up little to prevent scratching of Heat Bed
G1 X5 Y20 Z0.3 F5000.0 ; Move over to prevent blob squish
G92 E0
G92 E0
G1 F2400 E-0.8
;LAYER_COUNT:25
;LAYER:0
M107
M204 S2000
;MESH:arche.stl(4)
G0 F7500 X55.861 Y61.872 Z0.28
M204 S500
;TYPE:WALL-INNER
G1 F2400 E0
G1 F1500 X55.86 Y59.632 E0.07823
G1 X54.743 Y59.632 E0.11724
G1 X54.743 Y61.872 E0.19546
G1 X55.861 Y61.872 E0.23451
M204 S2000
G0 F7500 X56.161 Y62.172
M204 S500
;TYPE:WALL-OUTER
G1 F1500 X56.16 Y59.332 E0.33369
G1 X54.443 Y59.332 E0.39365
G1 X54.443 Y62.172 E0.49284
G1 X56.161 Y62.172 E0.55283
M204 S2000
G0 F7500 X55.601 Y61.612
M204 S500
;TYPE:SKIN
G1 F1500 X55.003 Y61.612 E0.57372
G1 X55.003 Y59.892 E0.63379
G1 X55.6 Y59.892 E0.65463
G1 X55.601 Y61.612 E0.7147
M204 S2000
G0 F7500 X55.45 Y61.39
M204 S500
G1 F1500 X55.152 Y61.092 E0.72942
M204 S2000
G0 F7500 X55.45 Y60.966
M204 S500
G1 F1500 X55.152 Y60.668 E0.74414
M204 S2000
G0 F7500 X55.45 Y60.541
M204 S500
G1 F1500 X55.152 Y60.244 E0.75883
M204 S2000
G0 F7500 X55.374 Y60.041
M204 S500
G1 F1500 X55.45 Y60.117 E0.76258
M204 S2000
G1 F2400 E-0.03742
G0 F7500 X55.811 Y60.117
G0 X55.91 Y61.877
G0 X67.757 Y61.872
G0 X68.924 Y61.872
M204 S500
;TYPE:WALL-INNER
G1 F2400 E0.76258
G1 F1500 X68.924 Y59.632 E0.84081
G1 X67.806 Y59.632 E0.87986
G1 X67.807 Y61.872 E0.95808
G1 X68.924 Y61.872 E0.99709
M204 S2000
G0 F7500 X69.224 Y62.172
M204 S500
;TYPE:WALL-OUTER
G1 F1500 X69.224 Y59.332 E1.09628
G1 X67.506 Y59.332 E1.15627
G1 X67.507 Y62.172 E1.25545
G1 X69.224 Y62.172 E1.31542
M204 S2000
G0 F7500 X68.664 Y61.612
M204 S500
;TYPE:SKIN
G1 F1500 X68.067 Y61.612 E1.33627
G1 X68.066 Y59.892 E1.39633
G1 X68.664 Y59.892 E1.41722
G1 X68.664 Y61.612 E1.47729
M204 S2000
G0 F7500 X68.512 Y61.3
M204 S500
G1 F1500 X68.215 Y61.002 E1.49198
M204 S2000
G0 F7500 X68.512 Y60.876
M204 S500
G1 F1500 X68.215 Y60.578 E1.50667
M204 S2000
G0 F7500 X68.512 Y60.451
M204 S500
G1 F1500 X68.215 Y60.154 E1.52134
M204 S2000
G1 F2400 E0.72134
;MESH:arche.stl(3)
G0 F7500 X67.856 Y60.154
G0 X67.929 Y61.75
G0 X68.929 Y61.809
G0 X74.996 Y62.05
G0 X76.15 Y64.326
M204 S500
;TYPE:WALL-INNER
G1 F2400 E1.52134
G1 F1500 X76.149 Y62.086 E1.59957
G1 X75.032 Y62.086 E1.63858
G1 X75.032 Y64.326 E1.71681
G1 X76.15 Y64.326 E1.75585
M204 S2000
G0 F7500 X76.45 Y64.626
M204 S500
;TYPE:WALL-OUTER
G1 F1500 X76.449 Y61.786 E1.85503
G1 X74.732 Y61.786 E1.915
G1 X74.732 Y64.626 E2.01418
G1 X76.45 Y64.626 E2.07417
M204 S2000
G0 F7500 X75.89 Y64.066
M204 S500
;TYPE:SKIN
G1 F1500 X75.292 Y64.066 E2.09506
G1 X75.292 Y62.346 E2.15513
G1 X75.889 Y62.346 E2.17598
G1 X75.89 Y64.066 E2.23604
M204 S2000
G0 F7500 X75.738 Y63.859
M204 S500
G1 F1500 X75.441 Y63.561 E2.25074
M204 S2000
G0 F7500 X75.738 Y63.435
M204 S500
G1 F1500 X75.441 Y63.137 E2.26543
M204 S2000
G0 F7500 X75.738 Y63.01
M204 S500
G1 F1500 X75.441 Y62.713 E2.2801
M204 S2000
G0 F7500 X75.647 Y62.495
M204 S500
G1 F1500 X75.738 Y62.586 E2.28459
M204 S2000
G1 F2400 E1.48459
G0 F7500 X76.1 Y62.586
G0 X76.199 Y64.331
G0 X88.046 Y64.326
G0 X89.213 Y64.326
M204 S500
;TYPE:WALL-INNER
G1 F2400 E2.28459
G1 F1500 X89.213 Y62.086 E2.36282
G1 X88.095 Y62.086 E2.40186
G1 X88.096 Y64.326 E2.48009
G1 X89.213 Y64.326 E2.5191
M204 S2000
G0 F7500 X89.513 Y64.626
M204 S500
;TYPE:WALL-OUTER
G1 F1500 X89.513 Y61.786 E2.61828
G1 X87.795 Y61.786 E2.67828
G1 X87.796 Y64.626 E2.77746
G1 X89.513 Y64.626 E2.83743
M204 S2000
G0 F7500 X88.953 Y64.066
M204 S500
;TYPE:SKIN
G1 F1500 X88.356 Y64.066 E2.85828
G1 X88.355 Y62.346 E2.91834
G1 X88.953 Y62.346 E2.93923
G1 X88.953 Y64.066 E2.99929
M204 S2000
G0 F7500 X88.802 Y63.77
M204 S500
G1 F1500 X88.504 Y63.472 E3.01401
M204 S2000
G0 F7500 X88.802 Y63.346
M204 S500
G1 F1500 X88.504 Y63.048 E3.02873
M204 S2000
G0 F7500 X88.802 Y62.921
M204 S500
G1 F1500 X88.504 Y62.624 E3.04342
M204 S2000
G1 F2400 E2.24342
;MESH:arche.stl
G0 F7500 X88.145 Y62.624
G0 X88.06 Y64.362
G0 X62.419 Y85.029
G0 X62.383 Y87.305
M204 S500
;TYPE:WALL-INNER
G1 F2400 E3.04342
G1 F1500 X62.383 Y85.065 E3.12165
G1 X61.265 Y85.065 E3.1607
G1 X61.266 Y87.305 E3.23892
G1 X62.383 Y87.305 E3.27793
M204 S2000
G0 F7500 X62.683 Y87.605
M204 S500
;TYPE:WALL-OUTER
G1 F1500 X62.683 Y84.765 E3.37711
G1 X60.965 Y84.765 E3.43711
G1 X60.966 Y87.605 E3.53629
G1 X62.683 Y87.605 E3.59626
M204 S2000
G0 F7500 X62.123 Y87.045
M204 S500
;TYPE:SKIN
G1 F1500 X61.526 Y87.045 E3.61711
G1 X61.525 Y85.325 E3.67717
G1 X62.123 Y85.325 E3.69806
G1 X62.123 Y87.045 E3.75813
M204 S2000
G0 F7500 X61.862 Y86.894
M204 S500
G1 F1500 X61.675 Y86.706 E3.76739
M204 S2000
G0 F7500 X61.972 Y86.58
M204 S500
G1 F1500 X61.675 Y86.282 E3.78208
M204 S2000
G0 F7500 X61.972 Y86.156
M204 S500
G1 F1500 X61.674 Y85.857 E3.79682
M204 S2000
G0 F7500 X61.972 Y85.731
M204 S500
G1 F1500 X61.715 Y85.474 E3.80952
M204 S2000
G1 F2400 E3.00952
G0 F7500 X61.715 Y85.115
G0 X61.387 Y85.187
G0 X61.406 Y86.463
G0 X61.216 Y87.299
G0 X49.356 Y87.341
G0 X49.32 Y87.305
M204 S500
;TYPE:WALL-INNER
G1 F2400 E3.80952
G1 F1500 X49.319 Y85.065 E3.88774
G1 X48.202 Y85.065 E3.92675
G1 X48.202 Y87.305 E4.00498
G1 X49.32 Y87.305 E4.04402
M204 S2000
G0 F7500 X49.62 Y87.605
M204 S500
;TYPE:WALL-OUTER
G1 F1500 X49.619 Y84.765 E4.14321
G1 X47.902 Y84.765 E4.20317
G1 X47.902 Y87.605 E4.30235
G1 X49.62 Y87.605 E4.36235
M204 S2000
G0 F7500 X49.06 Y87.045
M204 S500
;TYPE:SKIN
G1 F1500 X48.462 Y87.045 E4.38323
G1 X48.462 Y85.325 E4.4433
G1 X49.059 Y85.325 E4.46415
G1 X49.06 Y87.045 E4.52422
M204 S2000
G0 F7500 X48.71 Y86.894
M204 S500
G1 F1500 X48.611 Y86.795 E4.52911
M204 S2000
G0 F7500 X48.909 Y86.669
M204 S500
G1 F1500 X48.611 Y86.37 E4.54385
M204 S2000
G0 F7500 X48.909 Y86.245
M204 S500
G1 F1500 X48.611 Y85.946 E4.55859
M204 S2000
G0 F7500 X48.909 Y85.82
M204 S500
G1 F1500 X48.611 Y85.522 E4.57331
M204 S2000
G1 F2400 E3.77331
;MESH:arche.stl(1)
G0 F7500 X48.252 Y85.522
G0 X48.324 Y87.183
G0 X49.356 Y87.341
G0 X57.158 Y108.944
G0 X58.312 Y111.219
M204 S500
;TYPE:WALL-INNER
G1 F2400 E4.57331
G1 F1500 X58.311 Y108.98 E4.6515
G1 X57.194 Y108.98 E4.69051
G1 X57.194 Y111.219 E4.7687
G1 X58.312 Y111.219 E4.80775
M204 S2000
G0 F7500 X58.612 Y111.519
M204 S500
;TYPE:WALL-OUTER
G1 F1500 X58.611 Y108.68 E4.9069
G1 X56.894 Y108.68 E4.96686
G1 X56.894 Y111.519 E5.06601
G1 X58.612 Y111.519 E5.126
M204 S2000
G0 F7500 X58.052 Y110.959
M204 S500
;TYPE:SKIN
G1 F1500 X57.454 Y110.959 E5.14689
G1 X57.454 Y109.24 E5.20692
G1 X58.051 Y109.24 E5.22777
G1 X58.052 Y110.959 E5.2878
M204 S2000
G0 F7500 X57.774 Y110.807
M204 S500
G1 F1500 X57.603 Y110.636 E5.29625
M204 S2000
G0 F7500 X57.902 Y110.51
M204 S500
G1 F1500 X57.603 Y110.212 E5.31099
M204 S2000
G0 F7500 X57.901 Y110.085
M204 S500
G1 F1500 X57.603 Y109.788 E5.32568
M204 S2000
G0 F7500 X57.901 Y109.661
M204 S500
G1 F1500 X57.629 Y109.389 E5.33912
M204 S2000
G1 F2400 E4.53912
G0 F7500 X57.629 Y109.03
G0 X58.189 Y109.102
G0 X58.361 Y111.224
G0 X70.208 Y111.219
G0 X71.375 Y111.219
M204 S500
;TYPE:WALL-INNER
G1 F2400 E5.33912
G1 F1500 X71.375 Y108.98 E5.41731
G1 X70.257 Y108.98 E5.45635
G1 X70.258 Y111.219 E5.53455
G1 X71.375 Y111.219 E5.57356
M204 S2000
G0 F7500 X71.675 Y111.519
M204 S500
;TYPE:WALL-OUTER
G1 F1500 X71.675 Y108.68 E5.6727
G1 X69.957 Y108.68 E5.7327
G1 X69.958 Y111.519 E5.83185
G1 X71.675 Y111.519 E5.89181
M204 S2000
G0 F7500 X71.115 Y110.959
M204 S500
;TYPE:SKIN
G1 F1500 X70.518 Y110.959 E5.91266
G1 X70.517 Y109.24 E5.97269
G1 X71.115 Y109.24 E5.99358
G1 X71.115 Y110.959 E6.05361
M204 S2000
G0 F7500 X70.927 Y110.807
M204 S500
G1 F1500 X70.667 Y110.548 E6.06643
M204 S2000
G0 F7500 X70.965 Y110.421
M204 S500
G1 F1500 X70.667 Y110.124 E6.08112
M204 S2000
G0 F7500 X70.965 Y109.997
M204 S500
G1 F1500 X70.666 Y109.699 E6.09586
M204 S2000
G0 F7500 X70.965 Y109.573
M204 S500
G1 F1500 X70.781 Y109.389 E6.10495
M204 S2000
G1 F2400 E5.30495
;MESH:arche.stl(11)
G0 F7500 X70.781 Y109.03
G0 X70.379 Y109.102
G0 X70.222 Y111.255
G0 X40.936 Y121.448
G0 X40.325 Y122.429
M204 S500
;TYPE:WALL-INNER
G1 F2400 E6.10495
G1 F1500 X40.884 Y121.462 E6.14396
G1 X38.948 Y120.343 E6.22205
G1 X38.389 Y121.31 E6.26106
G1 X40.325 Y122.429 E6.33915
M204 S2000
G0 F7500 X40.435 Y122.839
M204 S500
;TYPE:WALL-OUTER
G1 F1500 X41.294 Y121.352 E6.39912
G1 X38.838 Y119.933 E6.49818
G1 X37.979 Y121.42 E6.55815
G1 X40.435 Y122.839 E6.65721
M204 S2000
G0 F7500 X40.23 Y122.073
M204 S500
;TYPE:SKIN
G1 F1500 X38.745 Y121.215 E6.71711
G1 X39.043 Y120.699 E6.73792
G1 X40.528 Y121.557 E6.79781
G1 X40.23 Y122.073 E6.81862
M204 S2000
G0 F7500 X40.26 Y121.719
M204 S500
G1 F1500 X39.92 Y121.379 E6.83541
M204 S2000
G0 F7500 X39.722 Y121.605
M204 S500
G1 F1500 X39.069 Y120.952 E6.86766
M204 S2000
G1 F2400 E6.06766
G0 F7500 X38.759 Y120.772
G0 X38.556 Y121.265
G0 X40.235 Y122.411
G0 X36.357 Y129.662
G0 X33.795 Y133.742
M204 S500
;TYPE:WALL-INNER
G1 F2400 E6.86766
G1 F1500 X34.037 Y133.322 E6.88459
G1 X34.088 Y133.175 E6.89003
G1 X34.324 Y132.758 E6.90676
G1 X32.416 Y131.657 E6.98369
G1 X31.858 Y132.623 E7.02265
G1 X33.795 Y133.742 E7.10077
M204 S2000
G0 F7500 X33.905 Y134.152
M204 S500
;TYPE:WALL-OUTER
G1 F1500 X34.312 Y133.446 E7.12923
G1 X34.366 Y133.287 E7.1351
G1 X34.593 Y132.892 E7.15101
G1 X34.745 Y132.655 E7.16084
G1 X32.306 Y131.247 E7.25919
G1 X31.448 Y132.733 E7.31912
G1 X33.905 Y134.152 E7.4182
M204 S2000
G0 F7500 X33.713 Y133.394
M204 S500
;TYPE:SKIN
G1 F1500 X32.212 Y132.528 E7.47872
G1 X32.51 Y132.011 E7.49956
G1 X33.97 Y132.855 E7.55846
G1 X33.713 Y133.394 E7.57931
M204 S2000
G0 F7500 X33.725 Y133.003
M204 S500
G1 F1500 X33.448 Y132.726 E7.59299
M204 S2000
G0 F7500 X33.25 Y132.953
M204 S500
G1 F1500 X32.545 Y132.247 E7.62784
M204 S2000
G1 F2400 E6.82784
;MESH:arche.stl(2)
G0 F7500 X32.237 Y132.068
G0 X32.025 Y132.578
G0 X33.776 Y133.766
G0 X34.968 Y138.297
G0 X36.122 Y140.572
M204 S500
;TYPE:WALL-INNER
G1 F2400 E7.62784
G1 F1500 X36.121 Y138.333 E7.70603
G1 X35.004 Y138.333 E7.74504
G1 X35.004 Y140.572 E7.82323
G1 X36.122 Y140.572 E7.86227
M204 S2000
G0 F7500 X36.422 Y140.872
M204 S500
;TYPE:WALL-OUTER
G1 F1500 X36.421 Y138.033 E7.96142
G1 X34.704 Y138.033 E8.02138
G1 X34.704 Y140.872 E8.12053
G1 X36.422 Y140.872 E8.18053
M204 S2000
G0 F7500 X35.862 Y140.312
M204 S500
;TYPE:SKIN
G1 F1500 X35.264 Y140.312 E8.20141
G1 X35.264 Y138.593 E8.26145
G1 X35.861 Y138.593 E8.28229
G1 X35.862 Y140.312 E8.34233
M204 S2000
G0 F7500 X35.711 Y140.08
M204 S500
G1 F1500 X35.413 Y139.782 E8.35705
M204 S2000
G0 F7500 X35.711 Y139.656
M204 S500
G1 F1500 X35.413 Y139.358 E8.37176
M204 S2000
G0 F7500 X35.711 Y139.232
M204 S500
G1 F1500 X35.413 Y138.933 E8.38651
M204 S2000
G0 F7500 X35.645 Y138.742
M204 S500
G1 F1500 X35.711 Y138.807 E8.38974
M204 S2000
G1 F2400 E7.58974
G0 F7500 X36.072 Y138.807
G0 X36.171 Y140.577
G0 X46.181 Y141.094
G0 X49.185 Y140.572
M204 S500
;TYPE:WALL-INNER
G1 F2400 E8.38974
G1 F1500 X49.185 Y138.333 E8.46793
G1 X48.067 Y138.333 E8.50698
G1 X48.068 Y140.572 E8.58517
G1 X49.185 Y140.572 E8.62418
M204 S2000
G0 F7500 X49.485 Y140.872
M204 S500
;TYPE:WALL-OUTER
G1 F1500 X49.485 Y138.033 E8.72333
G1 X47.767 Y138.033 E8.78332
G1 X47.768 Y140.872 E8.88247
G1 X49.485 Y140.872 E8.94243
M204 S2000
G0 F7500 X48.925 Y140.312
M204 S500
;TYPE:SKIN
G1 F1500 X48.328 Y140.312 E8.96328
G1 X48.327 Y138.593 E9.02332
G1 X48.925 Y138.593 E9.0442
G1 X48.925 Y140.312 E9.10423
M204 S2000
G0 F7500 X48.52 Y140.161
M204 S500
G1 F1500 X48.477 Y140.118 E9.10636
M204 S2000
G0 F7500 X48.775 Y139.992
M204 S500
G1 F1500 X48.477 Y139.693 E9.1211
M204 S2000
G0 F7500 X48.775 Y139.568
M204 S500
G1 F1500 X48.477 Y139.269 E9.13584
M204 S2000
G0 F7500 X48.775 Y139.143
M204 S500
G1 F1500 X48.477 Y138.845 E9.15056
M204 S2000
G1 F2400 E8.35056
;MESH:arche.stl(8)
G0 F7500 X48.117 Y138.845
G0 X48.208 Y140.049
G0 X48.246 Y140.394
G0 X48.189 Y138.455
G0 X49.063 Y138.455
G0 X49.063 Y140.45
G0 X48.258 Y140.45
G0 X48.217 Y141.267
G0 X27.626 Y134.993
G0 X27.59 Y134.957
M204 S500
;TYPE:WALL-INNER
G1 F2400 E9.15056
G1 F1500 X27.59 Y133.84 E9.18957
G1 X25.351 Y133.84 E9.26776
G1 X25.351 Y134.958 E9.30681
G1 X27.59 Y134.957 E9.385
M204 S2000
G0 F7500 X27.89 Y135.257
M204 S500
;TYPE:WALL-OUTER
G1 F1500 X27.89 Y133.54 E9.44496
G1 X25.051 Y133.54 E9.54411
G1 X25.051 Y135.258 E9.60411
G1 X27.89 Y135.257 E9.70325
M204 S2000
G0 F7500 X27.33 Y134.697
M204 S500
;TYPE:SKIN
G1 F1500 X25.611 Y134.698 E9.76329
G1 X25.611 Y134.1 E9.78417
G1 X27.33 Y134.1 E9.8442
G1 X27.33 Y134.697 E9.86505
M204 S2000
G0 F7500 X27.18 Y134.519
M204 S500
G1 F1500 X26.91 Y134.249 E9.87839
M204 S2000
G0 F7500 X26.783 Y134.546
M204 S500
G1 F1500 X26.486 Y134.249 E9.89306
M204 S2000
G0 F7500 X26.359 Y134.546
M204 S500
G1 F1500 X26.061 Y134.249 E9.90775
M204 S2000
G0 F7500 X25.935 Y134.546
M204 S500
G1 F1500 X25.76 Y134.372 E9.91637
M204 S2000
G1 F2400 E9.11637
G0 F7500 X25.401 Y134.372
G0 X25.473 Y134.836
G0 X26.901 Y134.817
G0 X27.535 Y135.007
G0 X27.44 Y139.297
G0 X28.52 Y145.114
G0 X27.59 Y148.021
M204 S500
;TYPE:WALL-INNER
G1 F2400 E9.91637
G1 F1500 X27.59 Y146.903 E9.95541
G1 X25.351 Y146.904 E10.0336
G1 X25.351 Y148.021 E10.07261
G1 X27.59 Y148.021 E10.15081
M204 S2000
G0 F7500 X27.89 Y148.321
M204 S500
;TYPE:WALL-OUTER
G1 F1500 X27.89 Y146.603 E10.2108
G1 X25.051 Y146.604 E10.30995
G1 X25.051 Y148.321 E10.36991
G1 X27.89 Y148.321 E10.46906
M204 S2000
G0 F7500 X27.33 Y147.761
M204 S500
;TYPE:SKIN
G1 F1500 X25.611 Y147.761 E10.52909
G1 X25.611 Y147.164 E10.54994
G1 X27.33 Y147.163 E10.60998
G1 X27.33 Y147.761 E10.63086
M204 S2000
G0 F7500 X27.118 Y147.609
M204 S500
G1 F1500 X26.821 Y147.312 E10.64553
M204 S2000
G0 F7500 X26.694 Y147.609
M204 S500
G1 F1500 X26.397 Y147.312 E10.6602
M204 S2000
G0 F7500 X26.27 Y147.609
M204 S500
G1 F1500 X25.973 Y147.312 E10.67487
M204 S2000
G0 F7500 X25.761 Y147.525
M204 S500
G1 F1500 X25.846 Y147.609 E10.67904
M204 S2000
G1 F2400 E9.87904
;MESH:arche.stl(12)
G0 F7500 X25.846 Y147.971
G0 X27.468 Y147.899
G0 X27.626 Y146.867
G0 X28.949 Y103.545
G0 X28.286 Y104.282
M204 S500
;TYPE:WALL-INNER
G1 F2400 E10.67904
G1 F1500 X28.894 Y103.673 E10.70909
G1 X28.942 Y103.57 E10.71306
G1 X28.734 Y103.332 E10.7241
G1 X28.695 Y103.219 E10.72827
G1 X27.44 Y101.963 E10.79028
G1 X26.651 Y102.752 E10.82925
G1 X27.248 Y103.349 E10.85873
G1 X27.477 Y103.471 E10.8678
G1 X28.286 Y104.282 E10.9078
M204 S2000
G0 F7500 X28.286 Y104.706
M204 S500
;TYPE:WALL-OUTER
G1 F1500 X29.173 Y103.819 E10.95161
G1 X29.19 Y103.723 E10.95501
G1 X29.341 Y103.545 E10.96317
G1 X29 Y103.193 E10.98028
G1 X28.983 Y103.081 E10.98424
G1 X27.44 Y101.539 E11.06042
G1 X26.227 Y102.752 E11.12033
G1 X27.097 Y103.621 E11.16327
G1 X27.242 Y103.66 E11.16852
G1 X28.286 Y104.706 E11.22013
M204 S2000
G0 F7500 X28.286 Y103.835
M204 S500
;TYPE:SKIN
G1 F1092.2 X27.663 Y103.215 E11.26228
G1 F1044.1 X27.441 Y103.068 E11.27564
G1 F1009 X27.124 Y102.752 E11.29888
G1 X27.44 Y102.436 E11.32208
G1 X27.736 Y102.733 E11.34385
G1 F1053.9 X27.992 Y102.962 E11.36093
G1 F1102.9 X28.423 Y103.394 E11.38991
G1 X28.537 Y103.584 E11.40043
G1 X28.286 Y103.835 E11.41729
M204 S2000
G1 F2400 E10.61729
G0 F7500 X28.099 Y104.021
G0 X28.957 Y103.541
G0 X30.022 Y102.976
G0 X34.906 Y100.614
G0 X34.675 Y101.316
G0 X34.903 Y101.885
G0 X35.156 Y102.3
G0 X35.571 Y102.553
G0 X36.14 Y102.781
G0 X36.842 Y102.55
G0 X37.346 Y102.253
G0 X37.688 Y101.908
G0 X38.806 Y99.56
G0 X38.805 Y98.802
G0 X38.466 Y98.413
G0 X37.47 Y95.097
M204 S500
;TYPE:WALL-INNER
G1 F2400 E11.41729
G1 F1500 X38.259 Y94.308 E11.45626
G1 X36.677 Y92.726 E11.53439
G1 X35.887 Y93.516 E11.57341
